X: 10024
T: DREW'S MARCH
C: Bob McQuillen 18 Oct 93
B: Bob's Note Book 10 #24
%R: march
Z: 2021 John Chambers <jc:trillian.mit.edu>
M: C
L: 1/4
K: G
D GA \
| B>cBA | GB2A | G>GFE | D3D | G>DGA | BdcB | B2A>G | Addc |
| B>cBA | GB2A | G>GFE | D3D | EGce | dBAB | G2G>G | G ||
|| Bcd \
| e2c>c | ccde | d2B>B | B3B | A2d>d | egfe | d>efe | dcBc |
| d2d>e | dcBA | G2E>D | EFGE | DG2c | B2A2 | G4- | G |]
%%begintext align
%% Drew Smith hails from
%% HO-HO-KUS, NJ (I don't understand "HO-HO-KUS" either, but that's what
%% it is) and he plays the best autoharp around. He's the only one I ever heard
%% play one of those things and drive a morocycle at the same time, which
%% I think is fairly unusual - I look forward to our next encounter, Drew -
%% we'll have a few tunes together --
%%endtext

%%sep 1 1 500

%%sep 1 1 500

